!! G. F. Handel, Fugue No. 3 from "Sechs kleine Fugen" for keyboard, from
!! 'A Miscellaneous Collection of Instrumental Music by G.F. Handel'
!! Volume 1, Edwin Kalmus (New York) n.d. pp.185-186; in three voices.
!! NOTE:  Double-stops occur in bars 31-34, 99 and 100.
!! NOTE:  This encoding has been validated through the double-entry
!!        method of encoding.
**kern	**kern	**kern
*M3/4	*M3/4	*M3/4
=1	=1	=1
2.r	4r	2.r
.	4a	.
.	4a	.
=2	=2	=2
2.r	4f#	2.r
.	4b	.
.	4b	.
=3	=3	=3
2.r	4a	2.r
.	8a	.
.	8g	.
.	8a	.
.	8f#	.
=4	=4	=4
2.r	[4g	2.r
.	8g]	.
.	8f#	.
.	8g	.
.	8e	.
=5	=5	=5
2.r	4f#	4r
.	8d	4dd
.	8e	.
.	8f#	4dd
.	8g	.
=6	=6	=6
2.r	4a	4cc#
.	4d	4ff#
.	4dd	4ff#
=7	=7	=7
2.r	4cc#	4ee
.	4a	8ee
.	.	8dd
.	4r	8ee
.	.	8cc#
=8	=8	=8
2.r	4b	4dd
.	4e	8dd
.	.	8cc#
.	4r	8dd
.	.	8b
=9	=9	=9
4r	4a	4cc#
4A	4cc#	4aa
4A	4cc#	4aa
=10	=10	=10
4F#	4dd	4aa
4B	4dd	4gg
4B	4dd	4gg
=11	=11	=11
4A	4cc#	4gg
8A	4cc#	4ff#
8G	.	.
8A	4cc#	4ff#
8F#	.	.
=12	=12	=12
4G	4b	4ff#
8G	4b	4ee
8F#	.	.
8G	4b	4ee
8E	.	.
=13	=13	=13
4F#	4a	4ee
8F#	4a	4dd
8E	.	.
8F#	4a	4dd
8D	.	.
=14	=14	=14
4E	4g	4dd
4A	4e	4cc#
4AA	4e	4cc#
=15	=15	=15
4D	2f#	4dd
4d	.	8dd
.	.	8cc#
4d	4r	8dd
.	.	8b
=16	=16	=16
4d	4r	4ee
8c#	4r	4a
8B	.	.
8c#	4cc#	4aa
8A	.	.
=17	=17	=17
4B	4dd	4aa
4e	4b	4gg#
4E	4b	4gg#
=18	=18	=18
4A	4cc#	4aa
8A	4cc#	4ff#
8G#	.	.
8A	4r	4r
8F#	.	.
=19	=19	=19
4G#	4b	4ff#
8G#	4b	4ee
8F#	.	.
8G#	4r	4r
8E	.	.
=20	=20	=20
4F#	4a	4ee
8F#	4a	4dd
8E	.	.
8F#	4r	4r
8D	.	.
=21	=21	=21
4E	4g#	4dd
4C#	4a	4cc#
4AA	4a	4cc#
=22	=22	=22
4E	4g#	4b
4C#	4a	4cc#
4AA	4a	4cc#
=23	=23	=23
2E	4g#	4b
.	4ee	2r
4r	4ee	.
=24	=24	=24
4r	4cc#	2.r
4A	4ff#	.
4A	4ff#	.
=25	=25	=25
4A	4ee	2.r
4G	8ee	.
.	8dd	.
4G	8ee	.
.	8cc#	.
=26	=26	=26
4G	4dd	2.r
4F#	8dd	.
.	8cc#	.
4F#	8dd	.
.	8b	.
=27	=27	=27
4E	4cc#	4r
4D	4dd	8aa
.	.	8gg
4D	4dd	8aa
.	.	8ff#
=28	=28	=28
4E	4dd	4gg
4A	4cc#	4ee
4A	4cc#	4ee
=29	=29	=29
4D	4dd	4ff#
4d	4r	8ff#
.	.	8ee
4d	4b	8ff#
.	.	8dd
=30	=30	=30
4c#	4b	4ee
4F#	4a#	4cc#
4F#	4a#	4cc#
=31	=31	=31
4BB	4b	4dd
8B	4b 4dd	4gg
8A	.	.
8B	4r	4r
8G	.	.
=32	=32	=32
4A	4a 4cc#	4gg
8A	4a 4cc#	4ff#
8G	.	.
8A	4r	4r
8F#	.	.
=33	=33	=33
4G	4g 4b	4ff#
8G	4g 4b	4ee
8F#	.	.
8G	4r	4r
8E	.	.
=34	=34	=34
4F#	4a# 4cc#	4ee
4D	4b	4dd
4BB	4b	4dd
=35	=35	=35
4F#	4a#	4cc#
4D	4b	4dd
4BB	4b	4dd
=36	=36	=36
2F#	4a#	4cc#
.	8f#	2r
.	8g#	.
4r	8a#	.
.	8b	.
=37	=37	=37
4r	8cc#	2.r
.	8dd	.
4F#	8ee	.
.	8cc#	.
4F#	8ff#	.
.	8ee	.
=38	=38	=38
4B	8dd	2.r
.	8cc#	.
4BB	8b	.
.	8cc#	.
4r	8dd#	.
.	8ee	.
=39	=39	=39
4r	8ff#	2.r
.	8gg	.
4B	8aa	.
.	8ff#	.
4B	8bb	.
.	8aa	.
=40	=40	=40
4e	8gg	2.r
.	8ff#	.
4E	8ee	.
.	8dd	.
4r	8cc#	.
.	8b	.
=41	=41	=41
4r	8cc#	2.r
.	8ee	.
4A	8aa	.
.	8gg	.
4A	8ff#	.
.	8ee	.
=42	=42	=42
4d	8ff#	2.r
.	8ee	.
4D	8dd	.
.	8cc#	.
4r	8b	.
.	8a#	.
=43	=43	=43
4r	8b	2.r
.	8dd	.
4B	8gg	.
.	8ff#	.
4B	8ee	.
.	8dd	.
=44	=44	=44
4c#	8ee	2.r
.	8dd	.
4C#	8cc#	.
.	8b	.
4r	8a#	.
.	8g#	.
=45	=45	=45
4r	8a#	2.r
.	8cc#	.
4A#	8ff#	.
.	8ee	.
4A#	8dd	.
.	8cc#	.
=46	=46	=46
4B	8dd	2.r
.	8ff#	.
4BB	8bb	.
.	8aa	.
4r	8gg	.
.	8ff#	.
=47	=47	=47
4E	8gg	2.r
.	8ff#	.
4G	8ee	.
.	8dd	.
4E	8cc#	.
.	8b	.
=48	=48	=48
2F#	4a#	2.r
.	4ff#	.
4r	4ff#	.
=49	=49	=49
2.r	4dd	2.r
.	4gg	.
.	4gg	.
=50	=50	=50
4r	4ff#	2.r
4B	8ff#	.
.	8ee	.
4B	8ff#	.
.	8dd#	.
=51	=51	=51
4G	4ee	4r
4cn	4ee	4aa
4c	4ee	4aa
=52	=52	=52
4B	4dd#	4aa
4e	[2ee	8gg
.	.	8aa
4e	.	8bb
.	.	8gg
=53	=53	=53
4A	4ee]	2.cccn
8A	[2ff#	.
8G	.	.
8A	.	.
8F#	.	.
=54	=54	=54
4G	4ff#]	2.bb
8G	4b	.
8F#	.	.
8G	[4ee	.
8E	.	.
=55	=55	=55
4F#	4ee]	4aa
4BB	4ee	4gg
4BB	4dd#	4ff#
=56	=56	=56
4E	4ee	4gg
4r	4ee	4gg
4r	4ddn	4ff#
=57	=57	=57
4A	4cc#	4ee
4r	4a	4cc#
4r	4g#	4b
=58	=58	=58
4F#	4a#	4cc#
4r	4dd	4ff#
4r	4cc#	4ee
=59	=59	=59
4BB	4b	4dd
4r	4dd	4bb
4r	4cc#	4aa
=60	=60	=60
2.r	4b	4gg#
.	4b	4gg#
.	4a	4ff#
=61	=61	=61
2.r	4g#	4ee#
.	4cc#	4aa
.	4cc#	4aa
=62	=62	=62
2.r	4b	4gg#
.	4a	4ff#
.	4a	4ff#
=63	=63	=63
2.r	4g#	4ee#
.	4a	4cc#
.	4a	4cc#
=64	=64	=64
2.r	4e#	4g#
.	4g#	4cc#
.	4g#	4cc#
=65	=65	=65
2.r	2g#	4cc#
.	.	4b
.	4f#	4a
=66	=66	=66
2.r	8f#	8a
.	8g#	8b
.	4f#	4a
.	4e#	4g#
=67	=67	=67
2.r	4f#	4f#
.	4ff#	4aa
.	4ee	4ggn
=68	=68	=68
4BB	4dd#	4ff#
4r	8gg	8bb
.	8ff#	8aa
4r	8gg	8bb
.	8ff#	8aa
=69	=69	=69
4E	4ee	4gg
4r	4ee	4gg
4r	4ddn	4ff#
=70	=70	=70
4AA	4cc#	4ee
4r	8ff#	8aa
.	8ee	8gg
4r	8ff#	8aa
.	8ee	8gg
=71	=71	=71
4r	4dd	4ff#
4D	4dd	4ff#
4D	4dd	4ff#
=72	=72	=72
4G	4b	4dd
4E	4ee	4gg
4E	4ee	4gg
=73	=73	=73
4A	4cc#	4ee
4F#	4ff#	4aa
4F#	4ff#	4aa
=74	=74	=74
4B	4dd	4ff#
4G	4ee	4gg
4D	4dd	4ff#
=75	=75	=75
2AA	2cc#	2ee
4r	4r	4r
=76	=76	=76
2.r	4r	2.r
.	4a	.
.	4a	.
=77	=77	=77
2.r	4f#	4r
.	4b	4dd
.	4b	4dd
=78	=78	=78
2.r	4a	4cc#
.	8a	4ff#
.	8g	.
.	8a	4ff#
.	8f#	.
=79	=79	=79
2.r	4g	4ee
.	8g	8ee
.	8f#	8dd
.	8g	8ee
.	8e	8cc#
=80	=80	=80
2.r	4f#	4dd
.	8f#	8dd
.	8e	8cc#
.	8f#	8dd
.	8d	8b
=81	=81	=81
4r	4e	4cc#
4A	4cc#	4aa
4A	4cc#	4aa
=82	=82	=82
4F#	4dd	4aa
4B	4dd	4gg
4B	4dd	4gg
=83	=83	=83
4A	4cc#	4gg
8A	4cc#	4ff#
8G	.	.
8A	4cc#	4ff#
8F#	.	.
=84	=84	=84
4G	4b	4ff#
8G	4b	4ee
8F#	.	.
8G	4b	4ee
8E	.	.
=85	=85	=85
4F#	4a	4ee
8F#	4a	4dd
8E	.	.
8F#	4a	4dd
8D	.	.
=86	=86	=86
4E	4g	4dd
4A	4g	4cc#
4AA	4g	4cc#
=87	=87	=87
4D	4f#	4dd
8D	4f#	4b
8C#	.	.
8D	4r	4r
8BB	.	.
=88	=88	=88
4C#	4e	4b
8C#	4e	4a
8BB	.	.
8C#	4r	4r
8AA	.	.
=89	=89	=89
4BB	4d	4a
8BB	4d	4g
8AA	.	.
8BB	4r	4r
8GG	.	.
=90	=90	=90
[2.AA	4c#	4g
.	4d	4f#
.	4d	4f#
=91	=91	=91
2.AA_	4c#	4e
.	4e	4g
.	4e	4g
=92	=92	=92
2.AA_	4d	4f#
.	4f#	4a
.	4f#	4a
=93	=93	=93
2.AA_	4e	4g
.	4d	4f#
.	4d	4f#
=94	=94	=94
2.AA_	4c#	4e
.	4a	4ff#
.	4a	4ff#
=95	=95	=95
2.AA]	4g	4ee
.	4f#	4dd
.	4f#	4dd
=96	=96	=96
4r	4e	4cc#
4A	4cc#	4aa
4A	4cc#	4aa
=97	=97	=97
4F#	4dd	4aa
4B	4dd	4gg
4B	4dd	4gg
=98	=98	=98
2A	2cc#	2gg
4d	4dd	4ff#
=99	=99	=99
4G	4b	8dd 8ff#
.	.	8ee 8gg
4A	4a	4dd 4ff#
4AA	8a	4cc# 4ee
.	8g	.
=100	=100	=100
2.D	2.f# 2.a	2.dd
====	====	====
*-	*-	*-
